X: 0
T: Rachael Rae
C: John Lowe
O: Scotland
R: reel
M: 4/4
L: 1/8
K: Dmaj
|:A,|"D"D2FA d2Ac|d2fd "A"e2cA|"D"d2AF "G"BAGF|"A"EFGA "D"FDD:|
A|"D"defg a2fd|"G"g2bg "A"e2cA|"D"defg a2fd|"G"egfe "D"fddA|
"D"defg fafd|"G"g2bg "A"e2cA|"D"d2AF "G"BAGF|"A"EFGA "D"FDD||